X:5642
T:Rose (J.-C. Blanc)
O:england
C:Trad 1, 75
M:3/4
L:1/4
K:C
d>cB|d>cB|e3|d>cB|\
d>cB|d>cB|1 c>BA|B3:|2 cBA|G3||
G/A/ B/G/ A/B/|A3|A/B/ c/A/ B/c/|B3|\
de>f|gfe|Bc>A|1 B3:|2 G3||


